X:193
T:Miss Jessys Hornpipe. Le4.193
T:Wonder Hp,aka. Le4.06, The
M:C
L:1/8
B:L.Leadley MS#4 c1850
Z:vmp. Peter Dunk 2016
Q:1/4=140
M:4/4
L:1/8
K:Bb
(BA)|BfdB GecA|BcdB F2 BA|G2e2 edcB|A2 fg fedc|BfdB GecA|
BcdB F2 BA|Ggfe dcBA|c2B2B2::cB|Acf=e fdcB|(Ac).f.=e fagf|
efga bg=eg|(fe).f.g fedc|(de).f.d BcdB|\
(cd).e.c ABcA|Bbag (fe).d.c|c2B2B2:|

